core/assets/icons/compare.filled.svg

<svg width="24" height="24" viewBox="0 0 24 24" xmlns="http://www.w3.org/2000/svg"><g id="compare=filled"><path id="Vector" d="M6.17 18C6.3766 17.4145 6.75974 16.9074 7.2666 16.5488C7.77346 16.1902 8.37909 15.9976 9 15.9976C9.62091 15.9976 10.2265 16.1902 10.7334 16.5488C11.2403 16.9074 11.6234 17.4145 11.83 18H22V20H11.83C11.6234 20.5855 11.2403 21.0926 10.7334 21.4512C10.2265 21.8099 9.62091 22.0025 9 22.0025C8.37909 22.0025 7.77346 21.8099 7.2666 21.4512C6.75974 21.0926 6.3766 20.5855 6.17 20H2V18H6.17ZM12.17 11C12.3766 10.4145 12.7597 9.90744 13.2666 9.5488C13.7735 9.19015 14.3791 8.99756 15 8.99756C15.6209 8.99756 16.2265 9.19015 16.7334 9.5488C17.2403 9.90744 17.6234 10.4145 17.83 11H22V13H17.83C17.6234 13.5855 17.2403 14.0926 16.7334 14.4512C16.2265 14.8099 15.6209 15.0025 15 15.0025C14.3791 15.0025 13.7735 14.8099 13.2666 14.4512C12.7597 14.0926 12.3766 13.5855 12.17 13H2V11H12.17ZM6.17 4.00001C6.3766 3.41448 6.75974 2.90744 7.2666 2.5488C7.77346 2.19015 8.37909 1.99756 9 1.99756C9.62091 1.99756 10.2265 2.19015 10.7334 2.5488C11.2403 2.90744 11.6234 3.41448 11.83 4.00001H22V6.00001H11.83C11.6234 6.58554 11.2403 7.09258 10.7334 7.45122C10.2265 7.80986 9.62091 8.00246 9 8.00246C8.37909 8.00246 7.77346 7.80986 7.2666 7.45122C6.75974 7.09258 6.3766 6.58554 6.17 6.00001H2V4.00001H6.17Z"/></g></svg>

<svg xmlns="http://www.w3.org/2000/svg" width="24" height="24" fill="none"><path fill="#191C22" d="M6.17 18a3 3 0 0 1 5.66 0H22v2H11.83a3 3 0 0 1-5.66 0H2v-2h4.17Zm6-7a3 3 0 0 1 5.66 0H22v2h-4.17a3 3 0 0 1-5.66 0H2v-2h10.17Zm-6-7a3.001 3.001 0 0 1 5.66 0H22v2H11.83a3 3 0 0 1-5.66 0H2V4h4.17Z"/></svg>
